!!!OTL@@DE: Schifferlied
!!!ONB: Italienisches Volkslied
!!!OMD: Moderato
!!!LYR: Brassier, Joseph von
!!!LDT: 1819-1820
!!!ONB: Mel: O pescator dell'onde. 1819
!!!OCL: Erk, Ludwig
!!!GCO: Deutscher Liederschatz, Band 1
**kern	**kern	**kern
*staff3	*staff2	*staff1
*Ipiano	*Ipiano	*Ivox
*>[A,A,B,B]	*>[A,A,B,B]	*>[A,A,B,B]
*>norep[A,B]	*>norep[A,B]	*>norep[A,B]
*>A	*>A	*>A
*clefF4	*clefG2	*clefG2
*k[f#]	*k[f#]	*k[f#]
*G:	*G:	*G:
*M2/4	*M2/4	*M2/4
*MM80	*MM80	*MM80
8r	8d/	8d/
=1	=1	=1
8GG\L	8B/ 8d/ 8g/L	8g/
8G\	8B/ 8g/	8g/
8F#\	8d/ 8a/	8a/
8D\J	8d/ 8f#/ 8a/J	8a/
=2	=2	=2
*	*^	*
8G\L	(8.b/L	4d\ 4g\	(8.b\L
8BB\	.	.	.
.	16dd/Jk)	.	16dd\Jk)
*	*v	*v	*
8D\J	8d/ 8f#/ 8a/	8a/
*	*^	*
8DD/ 8D/	16a/LL	16c\ 16f#\LL	16a/
.	16b/JJ	16d\JJ	16b\
*	*v	*v	*
=3	=3	=3
8GG/ 8D/L	4B/ 4g/	4g/
(16BB/L	.	.
16D/JJ)	.	.
8GG/	8r	8r
=:|!|:	=:|!|:	=:|!|:
*>B	*>B	*>B
8r	8d/	8d/
=4	=4	=4
16DD/LL	8a\ 8cc\L	8cc\
16D/	.	.
16F#/	8a\ 8cc\	8cc\
16D/JJ	.	.
16F#\LL	8a\ 8cc\J	8cc'\
16D\	.	.
16F#\	16cc\ (16ee\LL	16ee\LL
16D\JJ	16b\ 16dd\JJ)	16dd\JJ
=5	=5	=5
16GG\LL	8b\ 8dd\	8dd\
16D\	.	.
16G\	16d/ 16b/LL	16b\
16D\JJ	16d/ 16b/JJ	16b\
16GG\LL	16e/ 16cc/LL	16cc\
16D\	16d/ 16b/	16b\
16G\	16c/ 16a/	16a/
16D\JJ	16B/ 16g/JJ	16g/
=6	=6	=6
16DD/LL	16c/ 16a/LL	16a/
16D/	16c/ 16a/	16a/
16F#/	16c/ 16a/	16a/
16D/JJ	16c/ 16a/JJ	16a/
16DD/LL	(16d/ 16b/LL	16b/
16D/	16c/) 16a/	16a/
16DD/	16B/ 16g/	16g/
16D/JJ	16A/ 16f#/JJ	16f#/
=7	=7	=7
8GG/ 8D/	8B/ 8g/	8g/
8r	16B/ 16g/LL	16g/
.	16d/ 16a/JJ	16a/
*	*^	*
8r	(16b/LL	8g\L	16b\LL
*^	*	*	*
.	.	16dd/)	.	16dd\JJ
16A/LL	8D\	(16cc/	8f#\J	16cc\LL
16c/JJ	.	16a/JJ)	.	16a\JJ
*v	*v	*	*	*
*	*v	*v	*
=8	=8	=8
8G\ 8B\	4d/ 4g/	4g/
(16BB/LL	.	.
16D/JJ)	.	.
8GG/	8r	8r
==:|!	==:|!	==:|!
*-	*-	*-
!!!ENC: Craig Stuart Sapp
!!!END: 2004/05/19/
!!!EFL: 019/651
